tools/download-figma-icons/icons/outlined-large/safe-loading.svg

<svg width="64" height="64" viewBox="0 0 64 64" fill="none" xmlns="http://www.w3.org/2000/svg">
<path fill-rule="evenodd" clip-rule="evenodd" d="M45.7672 50.0246C49.7281 46.8796 51.9991 42.1537 51.9991 37.0557V8.68393C43.5517 8.475 40.6 6.49814 38.2024 4.89242L38.2002 4.89096C36.5622 3.79297 35.3792 2.99998 32.4993 2.99998C29.6193 2.99998 28.4353 3.79297 26.7953 4.89196L26.7913 4.89464C24.393 6.49915 21.4397 8.47505 12.9994 8.68293V37.0557C12.9994 42.1527 15.2704 46.8786 19.2304 50.0236L32.4993 60.5825L45.7672 50.0246ZM39.8718 2.40006C42.1824 3.94779 44.8012 5.70196 53.4991 5.70196C54.3271 5.70196 54.9991 6.37295 54.9991 7.20195V37.0557C54.9991 43.0747 52.3141 48.6576 47.6331 52.3726L33.4333 63.6735C33.1603 63.8915 32.8293 63.9995 32.4993 63.9995C32.1693 63.9995 31.8383 63.8915 31.5653 63.6735L17.3644 52.3716C12.6844 48.6566 9.99944 43.0737 9.99944 37.0557V7.20195C9.99944 6.37295 10.6714 5.70196 11.4994 5.70196C20.1922 5.70196 22.8126 3.94744 25.1244 2.3996L25.1253 2.39898L25.127 2.39783C26.8875 1.21919 28.7085 0 32.4993 0C36.2912 0 38.1102 1.21899 39.8702 2.39898L39.8718 2.40006ZM38.4608 35.2474L41.1398 32.5685C41.3148 32.3925 41.3408 32.1885 41.3408 32.0825C41.3408 31.9755 41.3158 31.7725 41.1408 31.5975L33.0639 23.5195C33.0634 23.519 33.0629 23.5188 33.0624 23.5185C33.0619 23.5183 33.0614 23.518 33.0609 23.5175C33.0609 23.5165 33.0599 23.5155 33.0599 23.5155L31.3459 21.8015C31.2119 21.6685 31.0359 21.6005 30.8599 21.6005C30.6839 21.6005 30.5069 21.6685 30.3729 21.8015L27.4819 24.6935C26.0239 26.1515 25.2319 28.0895 25.2509 30.1505C25.2719 32.2115 26.1009 34.1334 27.5879 35.5644C30.5529 38.4184 35.4308 38.2764 38.4608 35.2474ZM33.4669 19.6806L34.1219 20.3365L38.0108 16.4466C38.5968 15.8606 39.5458 15.8606 40.1318 16.4466C40.7178 17.0326 40.7178 17.9816 40.1318 18.5676L36.2438 22.4575L40.4858 26.6995L44.3738 22.8105C44.9598 22.2245 45.9098 22.2245 46.4948 22.8105C47.0808 23.3965 47.0808 24.3455 46.4948 24.9315L42.6068 28.8205L43.2608 29.4755C43.9568 30.1715 44.3408 31.0965 44.3408 32.0825C44.3408 33.0675 43.9568 33.9934 43.2608 34.6894L40.5818 37.3684C38.4278 39.5234 35.5838 40.6094 32.7689 40.6094C30.5439 40.6094 28.3419 39.9224 26.5049 38.5574L21.8249 43.2384C21.5319 43.5314 21.1479 43.6774 20.764 43.6774C20.38 43.6774 19.996 43.5314 19.703 43.2384C19.118 42.6524 19.118 41.7034 19.703 41.1174L24.3819 36.4384C23.0279 34.6404 22.2749 32.4745 22.2509 30.1785C22.2239 27.3055 23.3279 24.6045 25.3609 22.5725L28.2519 19.6806C29.6899 18.2436 32.0299 18.2436 33.4669 19.6806Z" fill="black"/>
</svg>

<svg width="64" height="64" viewBox="0 0 64 64" fill="none" xmlns="http://www.w3.org/2000/svg"><path fill-rule="evenodd" clip-rule="evenodd" d="M45.767 50.025C49.728 46.88 52 42.154 52 37.055V8.685c-8.448-.21-11.4-2.187-13.798-3.793l-.002-.001C36.562 3.793 35.38 3 32.5 3c-2.88 0-4.065.793-5.705 1.892l-.004.003C24.393 6.499 21.44 8.475 13 8.683v28.373c0 5.097 2.271 9.823 6.231 12.968L32.5 60.583l13.267-10.558ZM39.872 2.4c2.31 1.548 4.93 3.302 13.627 3.302a1.5 1.5 0 0 1 1.5 1.5v29.854c0 6.019-2.685 11.602-7.366 15.317l-14.2 11.3A1.494 1.494 0 0 1 32.5 64c-.33 0-.66-.108-.934-.326l-14.2-11.301C12.686 48.658 10 43.075 10 37.057V7.202a1.5 1.5 0 0 1 1.5-1.5c8.693 0 11.314-1.755 13.625-3.302l.001-.001.002-.001C26.887 1.219 28.709 0 32.499 0c3.792 0 5.611 1.219 7.371 2.399l.002.001ZM38.46 35.247l2.679-2.678a.686.686 0 0 0 0-.972l-8.076-8.078h-.002l-.001-.002-.001-.002-1.714-1.713a.69.69 0 0 0-.973 0l-2.891 2.892a7.561 7.561 0 0 0-2.231 5.457 7.563 7.563 0 0 0 2.337 5.413c2.965 2.854 7.843 2.712 10.873-.317Zm-4.994-15.566.655.655 3.889-3.89a1.5 1.5 0 1 1 2.12 2.122l-3.887 3.89 4.242 4.242 3.888-3.89a1.5 1.5 0 1 1 2.12 2.122l-3.887 3.889.654.654a3.662 3.662 0 0 1 1.08 2.608c0 .985-.384 1.91-1.08 2.606l-2.68 2.68a11.046 11.046 0 0 1-7.812 3.24 10.48 10.48 0 0 1-6.264-2.052l-4.68 4.681a1.495 1.495 0 0 1-1.061.44 1.501 1.501 0 0 1-1.061-2.56l4.679-4.68a10.534 10.534 0 0 1-2.131-6.26 10.533 10.533 0 0 1 3.11-7.605l2.89-2.892a3.693 3.693 0 0 1 5.216 0Z" fill="currentColor"/></svg>
